@extra/phlat-icons/symbolic-22/terminator.svg

<svg xmlns="http://www.w3.org/2000/svg" version="1.1" viewBox="-3 -3 22 22"><g color="#f1f2f2" fill="#f1f2f2"><path style="text-decoration-line:none;text-transform:none;text-indent:0" font-family="Bitstream Vera Sans" d="m2.188 0c-1.206 0-2.188 1.017-2.188 2.219v10.561c0 1.203 0.982 2.22 2.188 2.22h11.624c1.206 0 2.188-1.017 2.188-2.219v-10.561c0-1.203-0.982-2.22-2.188-2.22zm0 2h11.624c0.123 0 0.188 0.08 0.188 0.219v10.561c0 0.138-0.065 0.219-0.188 0.219h-11.624c-0.124 0.001-0.188-0.079-0.188-0.218v-10.561c0-0.14 0.065-0.22 0.188-0.22z" overflow="visible" font-weight="400"/><path style="text-decoration-line:none;text-transform:none;text-indent:0" stroke-width=".59107" d="m4.2776 3.0175a0.36734 0.34238 0 0 0 -0.1531 0.5889l0.9563 0.8913-0.9569 0.8919a0.37897 0.35322 0 1 0 0.5357 0.4993l1.2244-1.1413a0.36734 0.34238 0 0 0 0 -0.4993l-1.2244-1.1412a0.36734 0.34238 0 0 0 -0.3827 -0.0896z" overflow="visible" font-weight="400"/><path d="m7 5h2v1h-2z" overflow="visible" stroke-width=".81650"/><rect y="7" width="12" x="2" height="1"/><path style="text-decoration-line:none;text-transform:none;text-indent:0" stroke-width=".59107" d="m4.2776 9.0175a0.36734 0.34238 0 0 0 -0.1531 0.5889l0.9563 0.8916-0.9569 0.892a0.37897 0.35322 0 1 0 0.5357 0.4993l1.2245-1.1413a0.36734 0.34238 0 0 0 0 -0.4993l-1.2245-1.1419a0.36734 0.34238 0 0 0 -0.3827 -0.0896z" overflow="visible" font-weight="400"/><path d="m7 11h2v1h-2z" overflow="visible" stroke-width=".81650"/></g></svg>

<svg xmlns="http://www.w3.org/2000/svg" viewBox="-3 -3 22 22">
    <g color="#f1f2f2" fill="#f1f2f2">
        <path style="text-decoration-line:none;text-transform:none;text-indent:0" font-family="Bitstream Vera Sans" d="M2.188 0C.982 0 0 1.017 0 2.219V12.78C0 13.983.982 15 2.188 15h11.624C15.018 15 16 13.983 16 12.781V2.22C16 1.017 15.018 0 13.812 0zm0 2h11.624c.123 0 .188.08.188.219V12.78c0 .138-.065.219-.188.219H2.188C2.064 13 2 12.92 2 12.781V2.22c0-.14.065-.22.188-.22z" overflow="visible" font-weight="400"/>
        <path style="text-decoration-line:none;text-transform:none;text-indent:0" stroke-width=".591" d="M4.278 3.018a.367.342 0 0 0-.153.588l.956.892-.957.892a.379.353 0 1 0 .536.499l1.224-1.141a.367.342 0 0 0 0-.5L4.66 3.108a.367.342 0 0 0-.383-.09z" overflow="visible" font-weight="400"/>
        <path d="M7 5h2v1H7z" overflow="visible" stroke-width=".817"/>
        <path d="M2 7h12v1H2z"/>
        <path style="text-decoration-line:none;text-transform:none;text-indent:0" stroke-width=".591" d="M4.278 9.018a.367.342 0 0 0-.153.588l.956.892-.957.892a.379.353 0 1 0 .536.5l1.224-1.142a.367.342 0 0 0 0-.5L4.66 9.108a.367.342 0 0 0-.383-.09z" overflow="visible" font-weight="400"/>
        <path d="M7 11h2v1H7z" overflow="visible" stroke-width=".817"/>
    </g>
</svg>
